X:142
T:Curly-Headed Ploughboy, The
R:Reel
Q:1/4=150
O:England
M:4/4
K:G
P:A
|:d3c|\
"G"B2d2 "Em"G2B2|"C"E4 "G"D2G2|"D7"FGAB "C"c2B2|"G"B4 "D"A2dc|\
"G"B2d2 "Em"G2B2|"C"E4  "G"D2G2|"D7"FGAB c2F2|[1"G"G4:|[2"G"G6|]
P:B Note the key change!
K:D
|:d2|\
"A"c2c2 cABc|"D"d2A2 A2d2|"A"c2c2 cABc|"D"d6 d2|\
"A"c2c2 cABc|"D"d2A2 "G"B2G2|"D"F2D2 "A"E2C2|[1"D"(D4 D2):|[2"D"(D4 D4)||
